z_dist/img/icons/crypto/bit-torrent-BTT.svg

<svg width="64" height="64" viewBox="0 0 64 64" fill="none" xmlns="http://www.w3.org/2000/svg">
<rect width="64" height="64" rx="4" fill="black"/>
<path fill-rule="evenodd" clip-rule="evenodd" d="M54.1043 22.671C54.7195 24.1226 55.1895 25.6315 55.5074 27.1757C56.4873 31.9265 55.9979 36.8631 54.1043 41.329C53.4892 42.7562 52.7494 44.1352 51.8891 45.4136C51.0293 46.6872 50.0485 47.8746 48.9603 48.9595C47.8754 50.0477 46.6879 51.0285 45.4143 51.8883C44.1097 52.7486 42.7569 53.5124 41.3297 54.1034C35.3672 56.6322 28.6337 56.6322 22.6713 54.1034C21.244 53.4883 19.8651 52.7486 18.5866 51.8883C17.313 51.0285 16.1255 50.0477 15.0406 48.9595C13.9526 47.8745 12.9717 46.687 12.1118 45.4136C11.2515 44.109 10.4876 42.7562 9.89661 41.329C7.3678 35.3667 7.3678 28.6333 9.89661 22.671C10.5073 21.2433 11.2489 19.8753 12.1118 18.5844C12.9718 17.3122 13.9526 16.1261 15.0406 15.0425C17.2259 12.848 19.8177 11.1002 22.6713 9.89658C28.6337 7.36781 35.3672 7.36781 41.3297 9.89658C42.7566 10.5074 44.124 11.249 45.4143 12.1117C46.6879 12.9715 47.8754 13.9523 48.9603 15.0405C50.0484 16.1247 51.0292 17.3115 51.8891 18.5844C52.7562 19.8727 53.498 21.2412 54.1043 22.671ZM11.0521 32.0238C11.0521 43.5921 20.4295 52.9955 32.0222 52.9955C43.5927 52.9955 52.9943 43.5921 52.9943 32.0238C52.9943 20.4555 43.5907 11.0521 32.0222 11.0521C20.4557 11.0521 11.0521 20.4555 11.0521 32.0238Z" fill="white"/>
<path d="M32.3939 51.1748H32.9608C33.0593 51.1748 33.1558 51.1748 33.2543 51.1487H33.2804C33.3789 51.1487 33.4513 51.1487 33.5498 51.1245H33.6242C33.6985 51.1245 33.7729 51.1245 33.8453 51.1004H33.9197C33.994 51.1004 34.0684 51.0763 34.1669 51.0763H34.2151C34.3136 51.0763 34.4121 51.0502 34.5106 51.0502C34.6091 51.0502 34.6835 51.026 34.782 51.0019H34.8303C34.9046 51.0019 34.979 50.9778 35.0514 50.9778H35.1016C35.2001 50.9517 35.2745 50.9517 35.373 50.9275C35.568 50.9034 35.765 50.8532 35.9379 50.8049H35.9881C36.0605 50.7808 36.159 50.7808 36.2334 50.7547H36.2575C36.4545 50.7064 36.6274 50.6562 36.8244 50.6079C34.9807 50.6664 33.137 50.4928 31.3366 50.0913C28.6269 49.5004 26.0438 48.443 23.8527 46.6198C20.3548 43.7089 18.3491 39.3809 18.3891 34.8304C18.4068 31.4779 19.5997 28.2379 21.7601 25.6742C24.5663 22.3515 28.5545 20.6027 32.6392 20.5042H33.206V17.2317H32.5668C31.3242 17.2545 30.087 17.4026 28.8741 17.6739C27.6536 17.9499 26.4657 18.3542 25.3302 18.88C24.1723 19.4227 23.0889 20.0861 22.0797 20.8499C21.037 21.6426 20.0875 22.5509 19.2494 23.5576C18.4604 24.4892 17.7755 25.5043 17.2071 26.5848C16.6447 27.6265 16.1908 28.723 15.8522 29.8573C15.5202 30.9741 15.298 32.1206 15.1889 33.2806L15.1145 34.362V35.0013C15.1386 36.2576 15.2874 37.4878 15.5567 38.6939C15.8281 39.9261 16.2462 41.106 16.7628 42.2398C17.38 43.5926 18.4876 45.5866 20.1359 47.0882C23.5015 49.7414 27.664 51.1812 31.9497 51.1748H32.3939Z" fill="white"/>
<path d="M37.7601 48.0227C36.5461 47.9794 35.3368 47.8477 34.1418 47.6287C29.0722 46.7182 24.7141 43.6165 23.116 38.9409C21.1702 33.2543 24.1492 27.1013 29.8099 25.2318C30.8886 24.8703 32.0191 24.687 33.1568 24.6891C34.6102 24.6891 36.0615 24.9846 37.3923 25.5253L38.7692 22.5966C38.3551 22.4305 37.9369 22.275 37.5149 22.1302C36.1046 21.6876 34.6349 21.4632 33.1568 21.4649C31.6759 21.4676 30.2051 21.7086 28.8008 22.1784C27.0084 22.7696 25.3577 23.725 23.9523 24.9846C23.2744 25.5884 22.6565 26.2562 22.1069 26.9786C21.5637 27.6929 21.0936 28.4599 20.7038 29.2682C19.9101 30.8932 19.4417 32.6577 19.3248 34.4624C19.2022 36.3318 19.4475 38.2012 20.0626 39.9742C20.6893 41.798 21.6966 43.4678 23.0175 44.8729C24.2236 46.1774 25.6267 47.1624 27.3233 48.073C29.0963 49.0077 31.2874 49.5002 33.5749 49.8218C35.0524 50.0168 37.0224 50.067 38.1782 50.067C39.1873 49.6972 39.6055 49.5243 40.1482 49.3032C40.6166 49.0821 41.0829 48.861 41.5513 48.5896C42.0197 48.3182 42.094 48.268 42.88 47.7534C42.95 47.7098 43.016 47.66 43.077 47.6046C40.3693 48.073 39.6798 48.0469 37.7601 48.0227Z" fill="white"/>
<path d="M43.8155 44.3559C43.0516 44.4041 41.9682 44.4765 40.7379 44.4765C38.5469 44.4765 35.8633 44.2815 33.5757 43.5177C30.0298 42.3377 26.6828 39.3105 26.6828 35.5676C26.6812 33.7785 27.3912 32.0622 28.6564 30.7971C29.9215 29.532 31.6378 28.822 33.4269 28.8236C35.9618 28.8236 38.1529 30.2267 39.3107 32.269L42.2395 30.8176C41.7803 29.9531 41.1904 29.1645 40.4907 28.4799C38.6181 26.6041 36.0764 25.55 33.4259 25.55C30.7754 25.55 28.2338 26.6041 26.3612 28.4799C24.486 30.3523 23.4324 32.8935 23.4324 35.5435C23.4389 36.9186 23.7334 38.2771 24.2967 39.5316C24.8114 40.6633 25.527 41.7226 26.4376 42.7076C28.0377 44.4282 30.2268 45.8072 32.5666 46.5952C34.8059 47.3329 38.1046 47.6043 41.3048 47.3831C42.1893 47.3088 42.8546 47.2344 43.9864 46.9892C45.0785 46.1273 46.0698 45.1448 46.9413 44.0604C46.1775 44.1348 44.7744 44.2815 43.8155 44.3559Z" fill="white"/>
</svg>

<svg width="64" height="64" fill="none" xmlns="http://www.w3.org/2000/svg"><rect width="64" height="64" rx="4" fill="#000"/><path fill-rule="evenodd" clip-rule="evenodd" d="M54.104 22.671a23.892 23.892 0 010 18.658 25.176 25.176 0 01-2.215 4.085 23.853 23.853 0 01-2.929 3.545 23.854 23.854 0 01-3.546 2.93c-1.304.86-2.657 1.623-4.084 2.214a23.893 23.893 0 01-18.659 0 25.176 25.176 0 01-4.084-2.215 23.854 23.854 0 01-3.546-2.928 23.887 23.887 0 01-2.93-3.546c-.86-1.305-1.623-2.658-2.214-4.085a23.892 23.892 0 010-18.658 25.156 25.156 0 012.215-4.087 23.851 23.851 0 012.929-3.541 23.849 23.849 0 017.63-5.146 23.893 23.893 0 0118.659 0 25.17 25.17 0 014.084 2.215c1.274.86 2.461 1.84 3.546 2.928a23.85 23.85 0 015.144 7.631zm-43.052 9.353c0 11.568 9.378 20.971 20.97 20.971 11.57 0 20.972-9.403 20.972-20.971 0-11.569-9.403-20.972-20.972-20.972-11.566 0-20.97 9.404-20.97 20.972z" fill="#fff"/><path d="M32.394 51.175h.567c.098 0 .195 0 .293-.026h.026c.099 0 .171 0 .27-.025h.074c.075 0 .149 0 .221-.024h.075c.074 0 .148-.024.247-.024h.048c.099 0 .197-.026.296-.026.098 0 .172-.024.271-.048h.048c.075 0 .149-.024.221-.024h.05c.1-.026.174-.026.272-.05.195-.025.392-.075.565-.123h.05c.072-.024.171-.024.245-.05h.025c.197-.049.37-.099.566-.147a22.006 22.006 0 01-5.487-.517c-2.71-.59-5.293-1.648-7.484-3.471a15.164 15.164 0 01-5.464-11.79 14.326 14.326 0 013.371-9.156c2.806-3.322 6.794-5.071 10.88-5.17h.566v-3.272h-.64a18.47 18.47 0 00-3.692.442c-1.22.276-2.408.68-3.544 1.206a18.142 18.142 0 00-3.25 1.97 17.329 17.329 0 00-2.83 2.708 16.751 16.751 0 00-2.043 3.027 17.31 17.31 0 00-1.355 3.272 17.893 17.893 0 00-.663 3.424l-.075 1.081v.64a18.53 18.53 0 00.443 3.692c.271 1.232.69 2.412 1.206 3.546.617 1.353 1.725 3.347 3.373 4.848a19.037 19.037 0 0011.814 4.087h.444z" fill="#fff"/><path d="M37.76 48.023a25.02 25.02 0 01-3.618-.394c-5.07-.91-9.428-4.012-11.026-8.688-1.946-5.687 1.033-11.84 6.694-13.71a10.472 10.472 0 013.347-.542c1.453 0 2.905.296 4.235.836l1.377-2.928a26.28 26.28 0 00-1.254-.467 14.499 14.499 0 00-4.358-.665 13.81 13.81 0 00-4.356.713 13.689 13.689 0 00-4.849 2.807 14.115 14.115 0 00-1.845 1.994 13.394 13.394 0 00-1.403 2.29 13.88 13.88 0 00-1.38 5.193c-.122 1.87.123 3.74.739 5.512a13.61 13.61 0 002.954 4.899c1.207 1.304 2.61 2.29 4.306 3.2 1.773.935 3.964 1.427 6.252 1.749 1.477.195 3.447.245 4.603.245 1.01-.37 1.428-.543 1.97-.764.469-.22.935-.442 1.403-.713.469-.272.543-.322 1.329-.837.07-.043.136-.093.197-.148-2.708.468-3.397.442-5.317.418z" fill="#fff"/><path d="M43.816 44.356c-.764.048-1.848.12-3.078.12-2.191 0-4.875-.194-7.162-.958-3.546-1.18-6.893-4.208-6.893-7.95a6.738 6.738 0 016.744-6.744c2.535 0 4.726 1.403 5.884 3.445l2.928-1.451a9.516 9.516 0 00-1.748-2.338 9.983 9.983 0 00-14.13 0 9.982 9.982 0 00-2.929 7.064 9.85 9.85 0 00.865 3.988c.514 1.131 1.23 2.19 2.14 3.176 1.6 1.72 3.79 3.1 6.13 3.887 2.239.738 5.538 1.01 8.738.788a18.29 18.29 0 002.681-.394 18.474 18.474 0 002.955-2.929c-.764.075-2.167.221-3.126.296z" fill="#fff"/></svg>
